storage/app/icons/phosphoricons/thin/box-arrow-up-thin.svg

<svg xmlns="http://www.w3.org/2000/svg" fill="currentColor" viewBox="0 0 256 256"><path d="m219.58 70.21-16-32A4 4 0 0 0 200 36H56a4 4 0 0 0-3.58 2.21l-16 32A4 4 0 0 0 36 72v136a12 12 0 0 0 12 12h160a12 12 0 0 0 12-12V72a4 4 0 0 0-.42-1.79M58.47 44h139.06l12 24H46.47ZM208 212H48a4 4 0 0 1-4-4V76h168v132a4 4 0 0 1-4 4m-45.17-78.83a4 4 0 0 1-5.66 5.66L132 113.66V184a4 4 0 0 1-8 0v-70.34l-25.17 25.17a4 4 0 0 1-5.66-5.66l32-32a4 4 0 0 1 5.66 0Z"/></svg>

<svg xmlns="http://www.w3.org/2000/svg" viewBox="0 0 256 256" fill="currentColor"><path d="M219.58,70.21l-16-32A4,4,0,0,0,200,36H56a4,4,0,0,0-3.58,2.21l-16,32A4,4,0,0,0,36,72V208a12,12,0,0,0,12,12H208a12,12,0,0,0,12-12V72A4,4,0,0,0,219.58,70.21ZM58.47,44H197.53l12,24H46.47ZM208,212H48a4,4,0,0,1-4-4V76H212V208A4,4,0,0,1,208,212Zm-45.17-78.83a4,4,0,0,1-5.66,5.66L132,113.66V184a4,4,0,0,1-8,0V113.66L98.83,138.83a4,4,0,0,1-5.66-5.66l32-32a4,4,0,0,1,5.66,0Z"/></svg>
